X:1
T:Brightest Eyes' -- Reel
R:reel
B:Ryan's Mammoth Collection
N: 260
Z: Contributed by Ray Davies,  ray:davies99.freeserve.co.uk
M:2/4
L:1/16
K:D
u((3ABc)|\
d2(FG) .A(def) | gfed fdBc | d2(FG) A2(AB) | AFEG FDDA |
d2(FG) .A(def) | gfed fdBc | d2(FG) A2(de) | faef d2 :|
|:u((3efg)|\
afbf afdf | gfed (cd)((3efg) | afbf afdf |\
abag (fd)((3efg) |
afbf afdf | gfed fdBc | d2(FG) A2(de) | faef d2:|
